!!!OTL: 19d. Die Nachtjaeger.
!!!ARE: Europa, Mitteleuropa, Deutschland, Regensburg
!!!SCT: E0019E
!!!TXL: @@DE
!!!YEM: Copyright 1995, estate of Helmut Schaffrath.
**kern	**text
*ICvox	*
*M6/8	*
*k[b-e-]	*
*B-:	*
!LO:TX:a:t=Mäßig geſchwind.	!
!LO:TX:a:t=Mel. in v. Seckendorfs Mſpt. vor 1808. Aus Regensburg. Liederhort 9a.	!
{8f	Jch
=1	=1
4b-	weiß
8dd	ein'
8.dd	Jä-
16cc	-ger,
8b-	der
=2	=2
4a	bläſt
8cc	ſein
4.cc}	Horn
=3	=3
{8.b-	[al-
16cc	-le-
8dd	-weil
8ddL	bei
8ccJ	.
8b-	der
=4	=4
(4.cc	Nacht,]
8cc)	.
8r}	.
{8b-	er
=5	=5
4dd	bläſt
8ff	das
8.ffL	Wild
16ee-J	.
8dd	wohl
=6	=6
4cc	aus
8ee-	dem
4.ee-}	Korn
=7	=7
{8.dd	al-
16dd	-le-
8dd	-weil,
8dd	al-
8cc	-le-
8b-	-weil
=8	=8
4a	aus
8cc	dem
4.cc}	Korn,
=9	=9
{8.b-	al-
16cc	-le-
8dd	-weil
8ddL	bei
8ccJ	.
8cc	der
=10	=10
(4.b-	Nacht.
8b-)	.
8r}	.
==	==
!!!AGN: Sage, Maerchen -, Zauber - Lied, Ballade ?
!!!ONB: ESAC (Essen Associative Code) Database: ERK1
!!!AMT: compound duple
!!!AIN: vox
!!!EED: Helmut Schaffrath
!!!EEV: 1.0
!!!GTL: Nachtklaenge der Goettersage (Zaubermaeren)
!!!URL-scan: https://rosdok.uni-rostock.de/mcrviewer/recordIdentifier/rosdok_ppn745146120/iview2/phys_0119.iview2?x=-4.404412318552431&y=859.067973955709&scale=0.645690413860662&rotation=0&layout=singlePageLayout&logicalDiv=log_0009
!!!ENC: Anna Maria Matuszewska
!!!EEV: 2024/22/11
*-	*-
